packages/kaspersky-hexa-ui-icons/src/iconsSVGs/24/DeviceScan.svg

<svg xmlns="http://www.w3.org/2000/svg" width="24" height="24" fill="none" viewBox="0 0 24 24"><path fill="#000" fill-rule="evenodd" d="M5 6c0-1.6569 1.3431-3 3-3h8c1.6569 0 3 1.3431 3 3v1.0764c-.6124-.1006-1.2795-.16-2-.16V6c0-.5523-.4477-1-1-1H8c-.5523 0-1 .4477-1 1v12c0 .5523.4477 1 1 1h8c.5523 0 1-.4477 1-1l.0005-1.7499c.3154 0 .4839.0752.5336.1l.003.0016c.4282.371.9361.601 1.4629.6898V18c0 1.6569-1.3431 3-3 3H8c-1.6569 0-3-1.3431-3-3zm12.0005 4.9165c-2.7953 0-4.2232 1.3083-4.2975 1.378-.4025.3782-1.0353.3584-1.4135-.0442s-.3583-1.0353.0442-1.4135c.3054-.2868 2.1988-1.9203 5.6668-1.9203s5.3614 1.6335 5.6668 1.9203c.4025.3782.4223 1.011.0442 1.4135s-1.011.4224-1.4135.0442c-.0743-.0697-1.5022-1.378-4.2975-1.378m-3.2073 2.4599c-.3906.3906-.3906 1.0237 0 1.4142.3864.3865 1.0104.3905 1.4018.0122l.0028-.0025a1 1 0 0 1 .0587-.047c.0618-.0463.1672-.1176.3161-.192.2944-.1473.7673-.3112 1.4279-.3112s1.1336.1639 1.428.3112c.1488.0744.2543.1457.316.192.0308.0231.0504.0397.0587.047l.0029.0025c.3914.3783 1.0154.3743 1.4018-.0122.3905-.3905.3905-1.0236 0-1.4142l-.0014-.0014-.0016-.0015-.0032-.0032-.0076-.0074-.0192-.0183a2 2 0 0 0-.0547-.0495 3 3 0 0 0-.1757-.1418c-.1466-.11-.3537-.247-.6216-.3809-.539-.2695-1.3162-.5223-2.3224-.5223s-1.7834.2528-2.3224.5223c-.2678.1339-.4749.2709-.6216.3809a3 3 0 0 0-.1757.1418 2 2 0 0 0-.0547.0495l-.0192.0183-.0075.0074-.0033.0032-.0015.0015z"/></svg>

<svg width="24" height="24" viewBox="0 0 24 24" fill="none" xmlns="http://www.w3.org/2000/svg">
<path d="M5 6C5 4.34315 6.34315 3 8 3H16C17.6569 3 19 4.34315 19 6V7.07641C18.3876 6.97578 17.7205 6.91647 17 6.91647V6C17 5.44772 16.5523 5 16 5H8C7.44772 5 7 5.44772 7 6V18C7 18.5523 7.44772 19 8 19H16C16.5523 19 17 18.5523 17 18L17.0005 16.2501C17.3158 16.2501 17.4844 16.3253 17.5341 16.3501L17.5371 16.3517C17.9653 16.7227 18.4732 16.9527 19 17.0415V18C19 19.6569 17.6569 21 16 21H8C6.34315 21 5 19.6569 5 18V6Z" fill="black"/>
<path d="M17.0005 10.9165C14.2052 10.9165 12.7773 12.2248 12.703 12.2945C12.3005 12.6727 11.6677 12.6529 11.2895 12.2503C10.9114 11.8478 10.9312 11.215 11.3337 10.8368C11.6391 10.55 13.5325 8.91647 17.0005 8.91647C20.4685 8.91647 22.3619 10.55 22.6673 10.8368C23.0698 11.215 23.0896 11.8478 22.7115 12.2503C22.3333 12.6529 21.7005 12.6727 21.298 12.2945C21.2237 12.2248 19.7958 10.9165 17.0005 10.9165Z" fill="black"/>
<path d="M13.7932 14.7906C13.4026 14.4001 13.4026 13.767 13.7932 13.3764L13.7946 13.375L13.7961 13.3735L13.7994 13.3703L13.8069 13.3629L13.8261 13.3446C13.8407 13.331 13.8589 13.3143 13.8808 13.2951C13.9246 13.2568 13.9832 13.2084 14.0565 13.1533C14.2032 13.0433 14.4103 12.9063 14.6781 12.7724C15.2171 12.5029 15.9943 12.2501 17.0005 12.2501C18.0067 12.2501 18.7839 12.5029 19.3229 12.7724C19.5908 12.9063 19.7979 13.0433 19.9445 13.1533C20.0179 13.2084 20.0764 13.2568 20.1202 13.2951C20.1421 13.3143 20.1604 13.331 20.1749 13.3446L20.1941 13.3629L20.2017 13.3703L20.2049 13.3735L20.2065 13.375L20.2079 13.3764C20.5984 13.767 20.5984 14.4001 20.2079 14.7906C19.8215 15.1771 19.1975 15.1811 18.8061 14.8028L18.8032 14.8003C18.7949 14.793 18.7753 14.7764 18.7445 14.7533C18.6828 14.707 18.5773 14.6357 18.4285 14.5613C18.1341 14.414 17.6612 14.2501 17.0005 14.2501C16.3399 14.2501 15.867 14.414 15.5726 14.5613C15.4237 14.6357 15.3183 14.707 15.2565 14.7533C15.2258 14.7764 15.2062 14.793 15.1978 14.8003L15.195 14.8028C14.8036 15.1811 14.1796 15.1771 13.7932 14.7906Z" fill="black"/>
</svg>
